X: 50
T: Smile the 
T: 'Til 
M:3/4
R:
L:1/8
Z:added by Alf 
K:D
f4 d2| A4 f2| e3^d ed|c6|\
e4 c2| A4 g2| f3=f fe|d6|
d4 c2| B4 d2| A4 d2| f6|\
f4 e2| d4 B2| c4 d2| e4 =f2|
f4 d2| A4 f2| e3^d ed|c6|\
e4 c2| A4 g2| f3=f fe|d6|
d4 c2| B4 d2| A4 d2| f6|\
e4 B2| c4 A2| !fine! d2 c2 B2| AB cd e=f!D.C.!|]
